ui/StatusQ/src/assets/img/icons/tiny/time.svg

<svg fill="none" height="16" viewBox="0 0 16 16" width="16" xmlns="http://www.w3.org/2000/svg"><path clip-rule="evenodd" d="m8 15c3.866 0 7-3.134 7-7 0-3.86599-3.134-7-7-7-3.86599 0-7 3.13401-7 7 0 3.866 3.13401 7 7 7zm.24421-11.593c-.04913-.39306-.39546-.68014-.79081-.65553-.39536.02461-.7034.35243-.7034.74855v3.67157c0 .72935.28973 1.42882.80546 1.94455l2.41421 2.41426c.27593.2759.71733.2941 1.01513.0419.2977-.2522.3523-.6907.1255-1.0082l-2.20571-3.088c-.12072-.16901-.19742-.36542-.22318-.57151z" fill="#000" fill-rule="evenodd"/></svg>

<svg width="16" height="16" viewBox="0 0 16 16" fill="none" xmlns="http://www.w3.org/2000/svg">
<path fill-rule="evenodd" clip-rule="evenodd" d="M8 15C11.866 15 15 11.866 15 8C15 4.13401 11.866 1 8 1C4.13401 1 1 4.13401 1 8C1 11.866 4.13401 15 8 15ZM8.24421 3.407C8.19508 3.01394 7.84875 2.72686 7.4534 2.75147C7.05804 2.77608 6.75 3.1039 6.75 3.50002V7.17159C6.75 7.90094 7.03973 8.60041 7.55546 9.11614L9.96967 11.5304C10.2456 11.8063 10.687 11.8245 10.9848 11.5723C11.2825 11.3201 11.3371 10.8816 11.1103 10.5641L8.90459 7.4761C8.78387 7.30709 8.70717 7.11068 8.68141 6.90459L8.24421 3.407Z" fill="black"/>
</svg>
